X: 24413
T: Lovely On The Water
R: waltz
M: 3/4
K: Eminor
E>F|GE A2 GE|G2 E2 EF|GA B2 g2|(e2{fe} d2) g2|
e2 d2 B>G|AB D2 EF|GA B2 AG|E4||
E>F|(3GFG A2 B2|AG E2 EF|GA B2 g2|(e2{fe} d2) g2|
e2 d2 B>G|AB D2 EF|GA B2 AG|E4||
E>F|(3GFG A2 B2|A>G D2 EF|GA B2 g2|(e2{fe} d2) g2|
e2 d2 B>G|AB D2 EF|GA B2 AG|E4||

